X:1
T: The Touchstone
N:
C:
S:with variation
A:
O:
R:
M:4/4
K:D
I:speed 112
%W:         A1
% voice 1 (1 lines, 37 notes)
K:D
M:4/4
L:1/16
d2 f2 d2 f2 g f e d d c B A |d2 f2 d2 f2 a2 a2 a4 |d2 f2 d2 f2 g f e d d c B A |B2 g2 e2 c2 d4 d4 |
%W:         A2
% voice 1 (1 lines, 37 notes)
d2 f2 d2 f2 g f e d d c B A |d2 f2 d2 f2 a2 a2 a4 |d2 f2 d2 f2 g f e d d c B A |B2 g2 e2 c2 d4 d4 |
%W:         B1
% voice 1 (1 lines, 32 notes)
e2 c2 f2 d2 g2 e2 a2 f2 |B4 c2 d2 c d c B A4 |e2 c2 f2 d2 g2 e2 a2 f2 |G2 b2 a g f e d4 d4 |
%W:         B2
% voice 1 (1 lines, 32 notes)
e2 c2 f2 d2 g2 e2 a2 f2 |B4 c2 d2 c d c B A4 |e2 c2 f2 d2 g2 e2 a2 f2 |G2 b2 a g f e d4 d4 ||
%W:         A1
% voice 1 (1 lines, 52 notes)
d e f e d e f2 g f e d d c B A |d e f e d e f g a2 a2 a4 |d e f e d e f2 g f e d d c B A |B d g d e d c e d2 d2 d4 |
%W:         A2
% voice 1 (1 lines, 52 notes)
d e f e d e f2 g f e d d c B A |d e f e d e f g a2 a2 a4 |d e f e d e f2 g f e d d c B A |B d g d e d c e d2 d2 d4 |
%W:         B1
% voice 1 (1 lines, 55 notes)
e d c e f e d f g f e g a g f2 |B G B d c A c e c d c B A2 A2 |e d c e f e d f g f e g a g f2 |d g b g a g f e d2 d2 d4 |
%W:         B2
% voice 1 (1 lines, 55 notes)
e d c e f e d f g f e g a g f2 |B G B d c A c e c d c B A2 A2 |e d c e f e d f g f e g a g f2 |d g b g a g f e d2 d2 d4 ||
